icons/svg/topo/topo_guest_house.svg

<?xml version="1.0" encoding="UTF-8" standalone="no"?>
<!-- Created with Inkscape (http://www.inkscape.org/) -->

<svg
   xmlns:dc="http://purl.org/dc/elements/1.1/"
   xmlns:cc="http://creativecommons.org/ns#"
   xmlns:rdf="http://www.w3.org/1999/02/22-rdf-syntax-ns#"
   xmlns:svg="http://www.w3.org/2000/svg"
   xmlns="http://www.w3.org/2000/svg"
   xmlns:sodipodi="http://sodipodi.sourceforge.net/DTD/sodipodi-0.dtd"
   xmlns:inkscape="http://www.inkscape.org/namespaces/inkscape"
   version="1.0"
   width="580"
   height="580"
   id="svg2"
   sodipodi:version="0.32"
   inkscape:version="0.91 r"
   sodipodi:docname="topo_guesthouse.svg"
   inkscape:output_extension="org.inkscape.output.svg.inkscape">
  <metadata
     id="metadata2975">
    <rdf:RDF>
      <cc:Work
         rdf:about="">
        <dc:format>image/svg+xml</dc:format>
        <dc:type
           rdf:resource="http://purl.org/dc/dcmitype/StillImage" />
      </cc:Work>
    </rdf:RDF>
  </metadata>
  <sodipodi:namedview
     inkscape:window-height="1006"
     inkscape:window-width="1920"
     inkscape:pageshadow="2"
     inkscape:pageopacity="0.0"
     guidetolerance="10.0"
     gridtolerance="10.0"
     objecttolerance="10.0"
     borderopacity="1.0"
     bordercolor="#666666"
     pagecolor="#ffffff"
     id="base"
     inkscape:zoom="0.92167712"
     inkscape:cx="258.89196"
     inkscape:cy="317.55315"
     inkscape:window-x="1920"
     inkscape:window-y="0"
     inkscape:current-layer="svg2"
     showgrid="false"
     inkscape:window-maximized="1" />
  <defs
     id="defs4">
    <inkscape:perspective
       sodipodi:type="inkscape:persp3d"
       inkscape:vp_x="0 : 290 : 1"
       inkscape:vp_y="0 : 1000 : 0"
       inkscape:vp_z="580 : 290 : 1"
       inkscape:persp3d-origin="290 : 193.33333 : 1"
       id="perspective2441" />
    <inkscape:perspective
       id="perspective2466"
       inkscape:persp3d-origin="372.04724 : 350.78739 : 1"
       inkscape:vp_z="744.09448 : 526.18109 : 1"
       inkscape:vp_y="0 : 1000 : 0"
       inkscape:vp_x="0 : 526.18109 : 1"
       sodipodi:type="inkscape:persp3d" />
    <inkscape:perspective
       id="perspective3333"
       inkscape:persp3d-origin="372.04724 : 350.78739 : 1"
       inkscape:vp_z="744.09448 : 526.18109 : 1"
       inkscape:vp_y="0 : 1000 : 0"
       inkscape:vp_x="0 : 526.18109 : 1"
       sodipodi:type="inkscape:persp3d" />
    <inkscape:perspective
       id="perspective3401"
       inkscape:persp3d-origin="372.04724 : 350.78739 : 1"
       inkscape:vp_z="744.09448 : 526.18109 : 1"
       inkscape:vp_y="0 : 1000 : 0"
       inkscape:vp_x="0 : 526.18109 : 1"
       sodipodi:type="inkscape:persp3d" />
    <inkscape:perspective
       id="perspective3464"
       inkscape:persp3d-origin="372.04724 : 350.78739 : 1"
       inkscape:vp_z="744.09448 : 526.18109 : 1"
       inkscape:vp_y="0 : 1000 : 0"
       inkscape:vp_x="0 : 526.18109 : 1"
       sodipodi:type="inkscape:persp3d" />
    <inkscape:perspective
       id="perspective3581"
       inkscape:persp3d-origin="225 : 150 : 1"
       inkscape:vp_z="450 : 225 : 1"
       inkscape:vp_y="0 : 1000 : 0"
       inkscape:vp_x="0 : 225 : 1"
       sodipodi:type="inkscape:persp3d" />
    <inkscape:perspective
       id="perspective4312"
       inkscape:persp3d-origin="225 : 150 : 1"
       inkscape:vp_z="450 : 225 : 1"
       inkscape:vp_y="0 : 1000 : 0"
       inkscape:vp_x="0 : 225 : 1"
       sodipodi:type="inkscape:persp3d" />
    <inkscape:perspective
       id="perspective8860"
       inkscape:persp3d-origin="372.04724 : 350.78739 : 1"
       inkscape:vp_z="744.09448 : 526.18109 : 1"
       inkscape:vp_y="0 : 1000 : 0"
       inkscape:vp_x="0 : 526.18109 : 1"
       sodipodi:type="inkscape:persp3d" />
    <inkscape:perspective
       id="perspective8887"
       inkscape:persp3d-origin="372.04724 : 350.78739 : 1"
       inkscape:vp_z="744.09448 : 526.18109 : 1"
       inkscape:vp_y="0 : 1000 : 0"
       inkscape:vp_x="0 : 526.18109 : 1"
       sodipodi:type="inkscape:persp3d" />
    <inkscape:perspective
       sodipodi:type="inkscape:persp3d"
       inkscape:vp_x="0 : 16 : 1"
       inkscape:vp_y="0 : 1000 : 0"
       inkscape:vp_z="32 : 16 : 1"
       inkscape:persp3d-origin="16 : 10.666667 : 1"
       id="perspective4904" />
    <inkscape:perspective
       sodipodi:type="inkscape:persp3d"
       inkscape:vp_x="0 : 6 : 1"
       inkscape:vp_y="0 : 1000 : 0"
       inkscape:vp_z="12 : 6 : 1"
       inkscape:persp3d-origin="6 : 4 : 1"
       id="perspective4668" />
    <inkscape:perspective
       sodipodi:type="inkscape:persp3d"
       inkscape:vp_x="0 : 526.18109 : 1"
       inkscape:vp_y="0 : 1000 : 0"
       inkscape:vp_z="744.09448 : 526.18109 : 1"
       inkscape:persp3d-origin="372.04724 : 350.78739 : 1"
       id="perspective4471" />
    <symbol
       id="symbol-university"
       viewBox="244.5 110 489 219.9">
      <path
         d="M79,43l57,119c0,0,21-96,104-96s124,106,124,106l43-133l82-17L0,17L79,43z"
         id="path4460" />
      <path
         fill="none"
         stroke="#000000"
         stroke-width="20"
         d="M94,176l-21,39"
         id="path4462" />
      <path
         d="M300,19c0,10.5-22.6,19-50.5,19S199,29.5,199,19s22.6-19,50.5-19S300,8.5,300,19z"
         id="path4464" />
      <path
         ill="none"
         stroke="#000000"
         stroke-width="20"
         d="M112,216l-16-38L64,88c0,0-9-8-4-35s16-24,16-24"
         id="path4466" />
    </symbol>
    <inkscape:perspective
       sodipodi:type="inkscape:persp3d"
       inkscape:vp_x="0 : 30 : 1"
       inkscape:vp_y="0 : 1000 : 0"
       inkscape:vp_z="60 : 30 : 1"
       inkscape:persp3d-origin="30 : 20 : 1"
       id="perspective3452" />
    <inkscape:perspective
       id="perspective9479"
       inkscape:persp3d-origin="290 : 193.33333 : 1"
       inkscape:vp_z="580 : 290 : 1"
       inkscape:vp_y="0 : 1000 : 0"
       inkscape:vp_x="0 : 290 : 1"
       sodipodi:type="inkscape:persp3d" />
  </defs>
  <g
     id="g1327">
    <path
       d="M 66.275,1.768 C 24.94,1.768 1.704,23.139 1.704,66.804 L 1.704,516.927 C 1.704,557.771 22.599,579.156 63.896,579.156 L 515.92,579.156 C 557.227,579.156 578.149,558.841 578.149,516.927 L 578.149,66.804 C 578.149,24.203 557.227,1.768 514.628,1.768 C 514.624,1.768 66.133,1.625 66.275,1.768 z "
       style="fill:#111;stroke:#eee;stroke-width:3.40799999"
       id="path1329" />
  </g>
  <path
     style="font-size:12px;opacity:1;fill:#ffffff;fill-opacity:1;fill-rule:evenodd;stroke:#ffffff;stroke-width:1.24640143;stroke-opacity:1"
     d="m 289.48828,47.349855 -1.72619,0.07224 -1.50909,0.837648 -0.62338,0.54933 L 50.704402,256.36818 c -4.01997,3.55309 -1.508242,10.19122 3.856886,10.19319 l 41.15848,0 0,262.26645 c 4.84e-4,3.21822 2.609763,5.8267 5.827982,5.82621 l 140.95407,0 c 3.21822,5e-4 5.82751,-2.60799 5.82799,-5.82621 l 0,-152.3932 85.53754,0 0.002,152.3932 c 4.8e-4,3.21753 2.60868,5.82573 5.82621,5.82621 l 137.73347,0 c 3.21753,-4.8e-4 5.82573,-2.60868 5.82621,-5.82621 l 0,-262.26645 41.15848,0 c 5.36601,-3.3e-4 7.8793,-6.63952 3.85867,-10.19319 l -234.927,-207.559107 0,0.0018 c -1.06453,-0.940903 -2.43614,-1.460471 -3.85689,-1.460995 z m -2.39945,180.203655 c 10.53617,1e-4 18.27837,2.04763 23.22663,6.14258 4.94811,4.09514 7.42221,9.00066 7.42229,14.71659 -8e-5,3.19933 -0.75724,6.27062 -2.27147,9.21387 -1.5144,2.94338 -3.33798,5.33216 -5.47074,7.16634 -2.13291,1.83429 -5.95069,4.56433 -11.45335,8.19011 4.56421,4.56432 9.32044,8.80866 14.2687,12.73305 1.32228,-2.64468 2.45268,-5.4387 3.39121,-8.38206 l 20.34729,4.54295 c -1.06651,3.75384 -2.09028,6.76113 -3.07129,9.02191 -0.9812,2.26085 -2.36755,4.92689 -4.15903,7.99815 l 9.78973,6.71845 c 1.19428,0.76784 2.72994,1.68495 4.60693,2.75136 l -14.01275,16.12427 c -2.5595,-1.36502 -5.21488,-2.94331 -7.96616,-4.7349 -2.75145,-1.79159 -5.21488,-3.32723 -7.39029,-4.60693 -4.52169,2.98597 -9.04331,5.16146 -13.56486,6.52648 -6.27061,1.8769 -13.3943,2.81535 -21.37106,2.81535 -12.49848,0 -21.79766,-2.60206 -27.89755,-7.80619 -6.09993,-5.20412 -9.14988,-11.51733 -9.14988,-18.93962 -1e-5,-5.33208 1.79158,-10.37623 5.37476,-15.1325 3.58316,-4.75619 9.44845,-8.77658 17.59593,-12.06121 -3.41258,-4.13765 -5.75869,-7.73148 -7.03837,-10.78151 -1.27973,-3.04989 -1.91959,-6.15318 -1.91956,-9.30984 -3e-5,-6.65439 2.53806,-12.13578 7.61424,-16.4442 5.07613,-4.30825 12.77566,-6.4624 23.09865,-6.4625 z m -146.71806,1.59963 54.25945,0 c 9.04317,9e-5 15.98556,2.23956 20.82719,6.71844 4.84146,4.47904 7.26223,10.02443 7.26232,16.63615 -9e-5,5.54545 -1.7277,10.30168 -5.1828,14.2687 -2.30356,2.64477 -5.67344,4.73496 -10.10967,6.27055 6.7397,1.621 11.69855,4.40437 14.87657,8.35008 3.17783,3.94579 4.7668,8.90462 4.76689,14.87655 -9e-5,4.86289 -1.13051,9.23521 -3.39121,13.11696 -2.26091,3.88179 -5.35353,6.95307 -9.27786,9.21387 -2.43153,1.40768 -6.1,2.43144 -11.00546,3.07129 -6.52656,0.85314 -10.85622,1.27971 -12.98899,1.27971 l -50.03643,0 z m 218.31751,0 54.25945,0 c 9.04316,9e-5 15.98555,2.23956 20.82718,6.71844 4.84146,4.47904 7.26223,10.02443 7.26232,16.63615 -9e-5,5.54545 -1.72769,10.30168 -5.18281,14.2687 -2.30355,2.64477 -5.67343,4.73496 -10.10965,6.27055 6.73969,1.621 11.69854,4.40437 14.87656,8.35008 3.17783,3.94579 4.7668,8.90462 4.76689,14.87655 -9e-5,4.86289 -1.13049,9.23521 -3.39122,13.11696 -2.2609,3.88179 -5.35352,6.95307 -9.27785,9.21387 -2.43152,1.40768 -6.1,2.43144 -11.00545,3.07129 -6.52656,0.85314 -10.85622,1.27971 -12.989,1.27971 l -50.03642,0 z m -70.51169,12.47711 c -2.64479,9e-5 -4.79895,0.76791 -6.46251,2.30347 -1.66367,1.53573 -2.49547,3.34863 -2.49543,5.43874 -3e-5,2.64479 2.34609,6.4839 7.03838,11.51734 3.36984,-1.83419 5.9719,-3.82839 7.80619,-5.98262 1.83417,-2.1541 2.7513,-4.19095 2.75137,-6.11058 -7e-5,-2.0048 -0.76789,-3.70041 -2.30347,-5.08683 -1.53571,-1.38627 -3.64722,-2.07943 -6.33453,-2.07952 z m -118.56458,6.52649 0,17.78789 12.60509,0 c 4.52156,6e-5 7.66749,-0.77843 9.43781,-2.33546 1.7702,-1.55692 2.65533,-3.80707 2.65539,-6.75044 -6e-5,-2.72998 -0.88519,-4.86281 -2.65539,-6.39852 -1.77032,-1.53558 -4.85227,-2.3034 -9.24586,-2.30347 z m 218.3175,0 0,17.78789 12.60508,0 c 4.52157,6e-5 7.66751,-0.77843 9.43782,-2.33546 1.77021,-1.55692 2.65533,-3.80707 2.65539,-6.75044 -6e-5,-2.72998 -0.88518,-4.86281 -2.65539,-6.39852 -1.77031,-1.53558 -4.85227,-2.3034 -9.24586,-2.30347 z m -110.95033,35.51179 c -3.58321,2.51678 -5.96133,4.67095 -7.13436,6.4625 -1.17309,1.79161 -1.75962,3.68984 -1.75959,5.69468 -3e-5,3.11397 1.34366,5.88666 4.03107,8.31808 2.68734,2.43145 6.1852,3.64716 10.49358,3.64716 4.64954,0 9.87499,-1.8129 15.67637,-5.43874 -5.54544,-4.26567 -12.64779,-10.49355 -21.30707,-18.68368 z m -107.36717,0.12796 0,19.00361 14.78058,0 c 4.99079,2e-5 8.50997,-0.8851 10.55756,-2.65538 2.04745,-1.77023 3.07121,-4.14835 3.07129,-7.13436 -8e-5,-2.77266 -1.01317,-5.00147 -3.0393,-6.68645 -2.02626,-1.6849 -5.57743,-2.52738 -10.65353,-2.52742 z m 218.3175,0 0,19.00361 14.78058,0 c 4.99079,2e-5 8.50997,-0.8851 10.55756,-2.65538 2.04745,-1.77023 3.07122,-4.14835 3.07129,-7.13436 -7e-5,-2.77266 -1.01316,-5.00147 -3.03929,-6.68645 -2.02626,-1.6849 -5.57744,-2.52738 -10.65354,-2.52742 z"
     id="path645"
     inkscape:connector-curvature="0"
     sodipodi:nodetypes="ccccccccccccccccccccccccccccsccccccccccccssssccccccscccccccccscccsccsccccccsccccccsccccccscccccccscccccsccsccccscccscccscccsc" />
</svg>

<svg width="580" height="580" viewBox="0 0 580 580" fill="none" xmlns="http://www.w3.org/2000/svg">
<g clip-path="url(#clip0)">
<path d="M66.275 1.76815C24.94 1.76815 1.70398 23.1391 1.70398 66.8041V516.927C1.70398 557.771 22.599 579.156 63.896 579.156H515.92C557.227 579.156 578.149 558.841 578.149 516.927V66.8041C578.149 24.2031 557.227 1.76815 514.628 1.76815C514.624 1.76815 66.133 1.62515 66.275 1.76815Z" fill="#111111" stroke="#EEEEEE" stroke-width="3.408"/>
<path fill-rule="evenodd" clip-rule="evenodd" d="M289.488 47.3496L287.762 47.4219L286.253 48.2595L285.63 48.8088L50.7044 256.368C46.6844 259.921 49.1961 266.559 54.5612 266.561H95.7197V528.828C95.7202 532.046 98.3295 534.654 101.548 534.654H242.502C245.72 534.654 248.329 532.046 248.33 528.828V376.434H333.867L333.869 528.828C333.87 532.045 336.478 534.653 339.696 534.654H477.429C480.647 534.653 483.255 532.045 483.255 528.828V266.561H524.414C529.78 266.561 532.293 259.922 528.272 256.368L293.345 48.8088V48.8106C292.281 47.8697 290.909 47.3502 289.488 47.3496L289.488 47.3496ZM287.089 227.553C297.625 227.553 305.367 229.601 310.315 233.696C315.264 237.791 317.738 242.696 317.738 248.412C317.738 251.612 316.98 254.683 315.466 257.626C313.952 260.57 312.128 262.958 309.996 264.793C307.863 266.627 304.045 269.357 298.542 272.983C303.106 277.547 307.863 281.791 312.811 285.716C314.133 283.071 315.264 280.277 316.202 277.334L336.549 281.877C335.483 285.631 334.459 288.638 333.478 290.899C332.497 293.159 331.111 295.825 329.319 298.897L339.109 305.615C340.303 306.383 341.839 307.3 343.716 308.367L329.703 324.491C327.143 323.126 324.488 321.548 321.737 319.756C318.985 317.964 316.522 316.429 314.346 315.149C309.825 318.135 305.303 320.31 300.782 321.675C294.511 323.552 287.387 324.491 279.411 324.491C266.912 324.491 257.613 321.889 251.513 316.685C245.413 311.481 242.363 305.167 242.363 297.745C242.363 292.413 244.155 287.369 247.738 282.613C251.321 277.856 257.186 273.836 265.334 270.551C261.921 266.414 259.575 262.82 258.295 259.77C257.016 256.72 256.376 253.617 256.376 250.46C256.376 243.806 258.914 238.324 263.99 234.016C269.066 229.708 276.766 227.553 287.089 227.553V227.553ZM140.371 229.153H194.63C203.673 229.153 210.616 231.392 215.457 235.871C220.299 240.35 222.72 245.896 222.72 252.507C222.72 258.053 220.992 262.809 217.537 266.776C215.233 269.421 211.863 271.511 207.427 273.047C214.167 274.668 219.126 277.451 222.304 281.397C225.482 285.343 227.071 290.301 227.071 296.273C227.071 301.136 225.94 305.509 223.679 309.39C221.419 313.272 218.326 316.343 214.402 318.604C211.97 320.012 208.302 321.036 203.396 321.675C196.87 322.529 192.54 322.955 190.407 322.955H140.371V229.153ZM358.688 229.153H412.948C421.991 229.153 428.933 231.392 433.775 235.871C438.616 240.35 441.037 245.896 441.037 252.507C441.037 258.053 439.31 262.809 435.854 266.776C433.551 269.421 430.181 271.511 425.745 273.047C432.484 274.668 437.443 277.451 440.621 281.397C443.799 285.343 445.388 290.301 445.388 296.273C445.388 301.136 444.258 305.509 441.997 309.39C439.736 313.272 436.643 316.343 432.719 318.604C430.288 320.012 426.619 321.036 421.714 321.675C415.187 322.529 410.857 322.955 408.725 322.955H358.688V229.153ZM288.177 241.63C285.532 241.63 283.378 242.398 281.714 243.933C280.05 245.469 279.219 247.282 279.219 249.372C279.219 252.017 281.565 255.856 286.257 260.89C289.627 259.055 292.229 257.061 294.063 254.907C295.897 252.753 296.814 250.716 296.815 248.796C296.814 246.792 296.047 245.096 294.511 243.71C292.975 242.323 290.864 241.63 288.177 241.63V241.63ZM169.612 248.156V265.944H182.217C186.739 265.944 189.885 265.166 191.655 263.609C193.425 262.052 194.31 259.802 194.31 256.858C194.31 254.129 193.425 251.996 191.655 250.46C189.885 248.924 186.803 248.157 182.409 248.156H169.612ZM387.929 248.156V265.944H400.535C405.056 265.944 408.202 265.166 409.972 263.609C411.743 262.052 412.628 259.802 412.628 256.858C412.628 254.129 411.743 251.996 409.972 250.46C408.202 248.924 405.12 248.157 400.727 248.156H387.929ZM276.979 283.668C273.396 286.185 271.018 288.339 269.845 290.131C268.672 291.922 268.085 293.821 268.085 295.825C268.085 298.939 269.429 301.712 272.116 304.144C274.804 306.575 278.301 307.791 282.61 307.791C287.259 307.791 292.485 305.978 298.286 302.352C292.741 298.086 285.638 291.858 276.979 283.668ZM169.612 283.796V302.8H184.393C189.383 302.8 192.903 301.915 194.95 300.144C196.998 298.374 198.021 295.996 198.021 293.01C198.021 290.237 197.008 288.009 194.982 286.324C192.956 284.639 189.405 283.796 184.329 283.796H169.612ZM387.929 283.796V302.8H402.71C407.701 302.8 411.22 301.915 413.268 300.144C415.315 298.374 416.339 295.996 416.339 293.01C416.339 290.237 415.326 288.009 413.3 286.324C411.273 284.639 407.722 283.796 402.646 283.796H387.929Z" fill="white" stroke="white" stroke-width="1.2464"/>
</g>
<defs>
<clipPath id="clip0">
<path d="M0 0H580V580H0V0Z" fill="white"/>
</clipPath>
</defs>
</svg>
